X: 198
T: VARIOUS: Hessian Camp [Country Dance]
C: C: Trad.; S: Leveret
C: Set Leaders: Sophie, Tania, Anton
Z: Anton Zille ed.; Bregolas at The Session
N: https://thesession.org/members/26966/sets/92013
R: Various
M: 4/4
L: 1/8
Q: 1/2=100
K: Dmaj
|:D4 E2 DE|F2 D2 D2 E2|F4 G2 FG|A2 F2 F2 G2|
A2 F2 F2 A2|G2 E2 E2 G2|F2 D2 G3F|E8:||
|:F2 D2 F2 A2|E2 C2 E2 G2|F2 D2 G3F|E8|
DEFG A2 A2|DEFG A2 A2|B3A G2 F2|1 E8:|2 A8||

